X: 1
T: Paul Kinsella's
M: 4/4
L: 1/8
R: reel
K: Emin
|:BE~E2 BEdE|BE~E2 BAFA|BE~E2 BEdE|edBA GBFA|
BE~E2 DE~E2|GE~E2 AFDF|BEdE BEGA|Bedc BAFA:|
|:BE~E2 B,EGE|BEGE ADFA|BE~E2 [B,4E4]|EGBG DFAF|
BEdE BEGA|BEGE ADFA|BE~E2 [B,2E2]EF|~D3F ADFA:|
